Front/img/common-section_sousmetier/illu-11.svg

<svg xmlns="http://www.w3.org/2000/svg" fill="none" viewBox="0 0 478 540"><path fill="#E1E1E1" d="M7 346c0-55.228 44.772-100 100-100h370v294H7V346z"/><path fill="#fff" d="M236.5 490C141.7 490 44 523.333 7 540h470c-40.667-16.667-145.7-50-240.5-50z"/><path fill="#E1E1E1" d="M223.5 505.5L215 519h43l-9-13.5h-25.5zM207.5 530.5L198 540h75l-8.5-9.5h-57zM302.018 247.499c-3.318.436-6.429.37-9.018 0h9.018c13.127-1.725 29.482-11.305 29.482-41 0-37.2 32-40.834 48-38H477v79H302.018z"/><path stroke="#E1E1E1" d="M293 247.499c12.833 1.833 38.5-3.8 38.5-41s32-40.834 48-38H477v79H293z"/><path fill="#E1E1E1" d="M137 82h340c0-11.064-10.452-33.19-52.258-33.19C350.548 48.81 352.484 0 299.581 0c-61.291 0-64.516 48.81-103.226 48.81C155.372 48.81 137 66.38 137 82zM74.995 129.175C36.175 126.497 8.823 155.276 0 170h207c-7.239-11.043-28.166-30.653-53.956-20.747-32.237 12.381-29.523-16.732-78.049-20.078z"/><path fill="#081B42" d="M189.462 382.334c3.555-9.43 4.778-30.686 4.946-40.136l82.996 15.087-.416 51.908-93.527-11.524c.519-1.182 2.447-5.904 6.001-15.335z"/><path fill="#F4C7C3" d="M277.524 250.053c-6.357-8.304-15.416-2.999-25.823-8.78-3.872-2.15-5.013-16.614-5.049-24.275 11.935-5.155 18.116-22.075 17.985-39.779-.162-21.848-11.511-30.566-27.815-30.446-16.305.121-29.78 8.598-29.618 30.446.128 17.38.941 23.67 13.892 37.546 3.583 3.839 7.384 4.298 7.384 7.536 0 7.4-1.99 14.128-4.477 15.559-10.321 5.934-22.628 3.475-28.363 12.193-15.653 23.84-13.397 80.344-13.397 80.344l109.157-3.441s-.232-59.107-13.876-76.903z"/><path fill="#081B42" d="M256.233 232.014s-8.451 2.164-9.413-8.815c-8.335 3.315-14.327 1.961-18.634-.145-.741 9.288-2.48 8.189-5.255 8.96-8.326 2.312-13.413-2.905-23.589 3.7-26.364 17.114-18.023 96.533-18.023 96.533l112.395 2.776s6.013-63.829-12.026-90.194c-9.25-16.188-25.455-12.815-25.455-12.815z"/><path fill="#0C2048" d="M277.154 371.462c-31.996-2.447-69.091-10.632-83.455-14.396l-1.543 12.52c39.074 8.105 72.987 10.365 85.059 10.482l-.061-8.606zM276.014 279.594s6.042 12.299 5.814 19.759l-.228 7.461-1.158-.518s.448-6.48.34-8.79c-.108-2.309-2.244-11.85-4.768-17.912zM199.628 280.16s-6.611 17.571-5.604 22.337l1.048 4.755.666-.299a26.898 26.898 0 01-.729-6.855c.181-2.829 4.619-19.938 4.619-19.938z"/><path fill="#000" d="M233.188 219.105c2.841.604 5.78.582 8.612-.063 0 0-4.098 4.215-8.612.063z" opacity=".1"/><path fill="#00181B" d="M257.174 214.768h-43.016c-4.008-2.969-12.118-13.278-12.488-30.765-.462-21.86 12.488-39.671 35.615-39.671 23.126 0 33.302 20.24 33.302 39.671 0 15.544-8.942 26.987-13.413 30.765z"/><path fill="#666A6A" d="M235.897 156.07c-5.55-5.829-18.347-3.238-24.051-1.214 3.7-4.453 15.726-14.168 33.764-9.715 14.431 3.562 20.814 16.057 22.202 21.859-9.713 4.858-24.977-3.643-31.915-10.93z"/><path fill="#E9E9EA" d="M236.36 167.405c-16.651.324-30.372 5.262-35.152 7.691-2.96 11.334.309 22.264 2.313 26.312 3.546.81 15.078 2.348 32.839 2.024 17.762-.324 28.369-1.484 31.452-2.024 5.551-11.01 4.472-22.129 3.238-26.312-4.625-2.699-18.039-8.015-34.69-7.691z"/><path fill="#fff" d="M218.322 203.026l26.364-35.217c8.141.647 17.577 3.508 21.277 4.857l-22.664 30.36c-6.661.648-19.426.27-24.977 0zM211.846 202.624l26.827-35.218h-1.851l-27.289 35.218h2.313z"/><path fill="#fff" stroke="#fff" d="M224.108 453.898h24.766c20.495 0 39.387-12.471 43.328-32.584 11.684-59.622-.811-126.553-9.376-146.699-4.627-3.759-19.803-11.279-43.493-11.279s-40.409 7.52-45.807 11.279c-21.272 49.749-20.002 105.444-13.752 144.145 3.439 21.293 22.766 35.138 44.334 35.138z"/><path fill="#00181B" d="M213.697 439.52c0-9.942 8.059-18 18-18h8.403c9.941 0 18 8.058 18 18v54.154h-44.403V439.52z"/><path fill="#00181B" d="M258.1 521c0 9.941-8.059 18-18 18h-8.403c-9.941 0-18-8.059-18-18v-54.155H258.1V521z"/><path fill="#fff" d="M173.457 435.395c7.03 8.881 29.756 38.852 40.24 52.728v-6.938l-18.964-74.929-18.038-52.729c-27.752 39.315-12.026 70.767-3.238 81.868zM299.297 435.395c-7.03 8.881-29.756 38.852-40.24 52.728v-6.938l18.964-74.929 18.038-52.729c27.752 39.315 12.026 70.767 3.238 81.868z"/><path fill="#00181B" d="M179.007 435.857c9.621 11.841 27.135 35.153 34.69 45.328v-27.289l-4.626-.925c-.154-1.388-.74-5.92-1.85-12.951-1.387-8.788-8.788-22.664-14.338-29.139-4.44-5.181-9.867-13.876-12.026-17.576-12.488 11.1-13.876 27.751-1.85 42.552zM293.714 436.318c-9.621 11.841-28.06 36.078-35.615 46.253v-28.677l5.551-1.387c.154-1.388.74-4.995 1.85-12.026 1.387-8.788 9.25-23.126 13.876-29.139 4.16-5.408 9.867-13.876 12.025-17.576 12.489 11.1 14.339 27.751 2.313 42.552z"/><path fill="#C4C4C4" d="M191.496 409.031l22.201 77.705V469.16l-11.563-43.015c-3.33-7.401-8.479-14.493-10.638-17.114zM281.227 409.031L258.1 487.199v-17.576l12.488-43.478c3.331-7.401 8.48-14.493 10.639-17.114z"/><path fill="#E9E9EA" d="M193.809 273.511c-4.934 5.063 2.775 33.765 13.413 46.716 20.352 24.775 40.24 25.439 60.592 0 7.863-12.026 18.5-43.363 14.338-47.178-22.201-20.351-69.415-18.964-88.343.462z"/><path fill="#fff" d="M249.312 259.172l-43.478 59.666 4.163 4.625 45.328-63.366c-1.851-.37-4.78-.771-6.013-.925zM196.584 300.336l29.139-41.165c5.551-1.48 15.264-.925 19.427-.462l-41.166 56.428c-2.96-4.44-6.167-11.717-7.4-14.801z"/><path fill="#FFD300" d="M183.997 321.415l26.337 15.206a16 16 0 017.927 15.389l-.865 8.983-26.337-15.206a15.999 15.999 0 01-7.926-15.389l.864-8.983zM288.626 321.415l-26.337 15.206a16 16 0 00-7.927 15.389l.865 8.983 26.337-15.206a15.999 15.999 0 007.926-15.389l-.864-8.983z"/><path fill="#E6C00B" d="M203.521 353.067l9.251-14.801 1.85 1.387-9.25 14.339-1.851-.925z"/><path fill="#E7C10B" d="M192.42 346.59l9.713-14.801 8.788 5.088-9.713 14.801-8.788-5.088z"/><path fill="#FF8139" d="M192.883 335.027l-9.713-6.013.925-7.401 10.176 5.551-1.388 7.863zM279.838 335.027l9.713-6.013-.925-7.401-10.176 5.551 1.388 7.863z"/><path fill="#24AD79" d="M82.8 371.168s-76.289 0-76.289-71.328 48.093-91.232 38.143-143.483c-9.95-52.251 29.854-103.674 84.596-72.159 54.741 31.515 12.32 139.614 31.509 172.516 19.189 32.902 24.865 119.433-77.959 114.454z"/><path fill="#179364" fill-rule="evenodd" d="M95.597 74.563c13.855 11.912 24.585 32.956 16.825 67.107-15.605 68.677-4.681 96.772 9.363 121.746 13.962 24.825-7.545 114.432-105.911 74.093 20.481 33.659 66.721 33.659 66.721 33.659 102.823 4.979 97.148-81.552 77.959-114.454-7.3-12.518-5.683-35.919-3.892-61.846 2.918-42.222 6.298-91.145-27.617-110.67-11.988-6.901-23.259-9.825-33.448-9.635z" clip-rule="evenodd"/><path fill="#fff" d="M81.17 263.339c0-11.018-12.39-33.363-16.174-40.571 21.397 37.1 23.877 13.38 26.82 5.231 2.354-6.52-.227-22.939-1.811-30.334 1.755 6.64 5.978 19.151 8.828 16.072 2.85-3.078 9.94-19.995 13.129-28.069-6.489 19.015-18.912 58.246-16.692 63.049 2.22 4.804 18.225 2.002 25.95 0-20.327 7.353-25.77 20.724-25.95 26.49v264.431h-14.1V263.339z"/></svg>

<svg width="478" height="540" viewBox="0 0 478 540" fill="none" xmlns="http://www.w3.org/2000/svg">
<path d="M7 346C7 290.772 51.7715 246 107 246H477V540H7V346Z" fill="#E1E1E1"/>
<path d="M236.5 490C141.7 490 44 523.333 7 540H477C436.333 523.333 331.3 490 236.5 490Z" fill="white"/>
<path d="M223.5 505.5L215 519H258L249 505.5H223.5Z" fill="#E1E1E1"/>
<path d="M207.5 530.5L198 540H273L264.5 530.5H207.5Z" fill="#E1E1E1"/>
<path d="M302.018 247.499C298.7 247.935 295.589 247.869 293 247.499H302.018C315.145 245.774 331.5 236.194 331.5 206.499C331.5 169.299 363.5 165.665 379.5 168.499H477V247.499H302.018Z" fill="#E1E1E1"/>
<path d="M293 247.499C305.833 249.332 331.5 243.699 331.5 206.499C331.5 169.299 363.5 165.665 379.5 168.499H477V247.499H293Z" stroke="#E1E1E1"/>
<path d="M137 82H477C477 70.9365 466.548 48.8095 424.742 48.8095C350.548 48.8095 352.484 0 299.581 0C238.29 0 235.065 48.8095 196.355 48.8095C155.372 48.8095 137 66.3809 137 82Z" fill="#E1E1E1"/>
<path d="M74.9951 129.175C36.1741 126.497 8.82295 155.276 0 170H207C199.761 158.957 178.834 139.347 153.044 149.253C120.807 161.634 123.521 132.521 74.9951 129.175Z" fill="#E1E1E1"/>
<path d="M189.462 382.334C193.017 372.904 194.24 351.648 194.408 342.198L277.404 357.285L276.988 409.193L183.461 397.669C183.98 396.487 185.908 391.765 189.462 382.334Z" fill="#081B42"/>
<path d="M277.524 250.053C271.167 241.749 262.108 247.054 251.701 241.273C247.829 239.123 246.688 224.659 246.652 216.998C258.587 211.843 264.768 194.923 264.637 177.219C264.475 155.371 253.126 146.653 236.822 146.773C220.517 146.894 207.042 155.371 207.204 177.219C207.332 194.599 208.145 200.889 221.096 214.765C224.679 218.604 228.48 219.063 228.48 222.301C228.48 229.701 226.49 236.429 224.003 237.86C213.682 243.794 201.375 241.335 195.64 250.053C179.987 273.893 182.243 330.397 182.243 330.397L291.4 326.956C291.4 326.956 291.168 267.849 277.524 250.053Z" fill="#F4C7C3"/>
<path d="M256.233 232.014C256.233 232.014 247.782 234.178 246.82 223.199C238.485 226.514 232.493 225.16 228.186 223.054C227.445 232.342 225.706 231.243 222.931 232.014C214.605 234.326 209.518 229.109 199.342 235.714C172.978 252.828 181.319 332.247 181.319 332.247L293.714 335.023C293.714 335.023 299.727 271.194 281.688 244.829C272.438 228.641 256.233 232.014 256.233 232.014Z" fill="#081B42"/>
<path d="M277.154 371.462C245.158 369.015 208.063 360.83 193.699 357.066L192.156 369.586C231.23 377.691 265.143 379.951 277.215 380.068L277.154 371.462Z" fill="#0C2048"/>
<path d="M276.014 279.594C276.014 279.594 282.056 291.893 281.828 299.353L281.6 306.814L280.442 306.296C280.442 306.296 280.89 299.816 280.782 297.506C280.674 295.197 278.538 285.656 276.014 279.594Z" fill="#0C2048"/>
<path d="M199.628 280.16C199.628 280.16 193.017 297.731 194.024 302.497L195.072 307.252L195.738 306.953C195.202 304.709 194.957 302.405 195.009 300.098C195.19 297.269 199.628 280.16 199.628 280.16Z" fill="#0C2048"/>
<path opacity="0.1" d="M233.188 219.105C236.029 219.709 238.968 219.687 241.8 219.042C241.8 219.042 237.702 223.257 233.188 219.105Z" fill="black"/>
<path d="M257.174 214.768H214.158C210.15 211.799 202.04 201.49 201.67 184.003C201.208 162.143 214.158 144.332 237.285 144.332C260.411 144.332 270.587 164.572 270.587 184.003C270.587 199.547 261.645 210.99 257.174 214.768Z" fill="#00181B"/>
<path d="M235.897 156.07C230.347 150.241 217.55 152.832 211.846 154.856C215.546 150.403 227.572 140.688 245.61 145.141C260.041 148.703 266.424 161.198 267.812 167C258.099 171.858 242.835 163.357 235.897 156.07Z" fill="#666A6A"/>
<path d="M236.36 167.405C219.709 167.729 205.988 172.667 201.208 175.096C198.248 186.43 201.517 197.36 203.521 201.408C207.067 202.218 218.599 203.756 236.36 203.432C254.122 203.108 264.729 201.948 267.812 201.408C273.363 190.398 272.284 179.279 271.05 175.096C266.425 172.397 253.011 167.081 236.36 167.405Z" fill="#E9E9EA"/>
<path d="M218.322 203.026L244.686 167.809C252.827 168.456 262.263 171.317 265.963 172.666L243.299 203.026C236.638 203.674 223.873 203.296 218.322 203.026Z" fill="white"/>
<path d="M211.846 202.624L238.673 167.406H236.822L209.533 202.624H211.846Z" fill="white"/>
<path d="M224.108 453.898H235.169H248.874C269.369 453.898 288.261 441.427 292.202 421.314C303.886 361.692 291.391 294.761 282.826 274.615C278.199 270.856 263.023 263.336 239.333 263.336C215.643 263.336 198.924 270.856 193.526 274.615C172.254 324.364 173.524 380.059 179.774 418.76C183.213 440.053 202.54 453.898 224.108 453.898Z" fill="white" stroke="white"/>
<path d="M213.697 439.52C213.697 429.578 221.756 421.52 231.697 421.52H240.1C250.041 421.52 258.1 429.578 258.1 439.52V493.674H213.697V439.52Z" fill="#00181B"/>
<path d="M258.1 521C258.1 530.941 250.041 539 240.1 539L231.697 539C221.756 539 213.697 530.941 213.697 521L213.697 466.845L258.1 466.845L258.1 521Z" fill="#00181B"/>
<path d="M173.457 435.395C180.487 444.276 203.213 474.247 213.697 488.123V481.185L194.733 406.256L176.695 353.527C148.943 392.842 164.669 424.294 173.457 435.395Z" fill="white"/>
<path d="M299.297 435.395C292.267 444.276 269.541 474.247 259.057 488.123V481.185L278.021 406.256L296.059 353.527C323.811 392.842 308.085 424.294 299.297 435.395Z" fill="white"/>
<path d="M179.007 435.857C188.628 447.698 206.142 471.01 213.697 481.185L213.697 453.896L209.071 452.971C208.917 451.583 208.331 447.051 207.221 440.02C205.834 431.232 198.433 417.356 192.883 410.881C188.443 405.7 183.016 397.005 180.857 393.305C168.369 404.405 166.981 421.056 179.007 435.857Z" fill="#00181B"/>
<path d="M293.714 436.318C284.093 448.159 265.654 472.396 258.099 482.571V453.894L263.65 452.507C263.804 451.119 264.39 447.512 265.5 440.481C266.887 431.693 274.75 417.355 279.376 411.342C283.536 405.934 289.243 397.466 291.401 393.766C303.89 404.866 305.74 421.517 293.714 436.318Z" fill="#00181B"/>
<path d="M191.496 409.031L213.697 486.736V469.16L202.134 426.145C198.804 418.744 193.655 411.652 191.496 409.031Z" fill="#C4C4C4"/>
<path d="M281.227 409.031L258.1 487.199V469.623L270.588 426.145C273.919 418.744 279.068 411.652 281.227 409.031Z" fill="#C4C4C4"/>
<path d="M193.809 273.511C188.875 278.574 196.584 307.276 207.222 320.227C227.574 345.002 247.462 345.666 267.814 320.227C275.677 308.201 286.314 276.864 282.152 273.049C259.951 252.698 212.737 254.085 193.809 273.511Z" fill="#E9E9EA"/>
<path d="M249.312 259.172L205.834 318.838L209.997 323.463L255.325 260.097C253.474 259.727 250.545 259.326 249.312 259.172Z" fill="white"/>
<path d="M196.584 300.336L225.723 259.171C231.274 257.691 240.987 258.246 245.15 258.709L203.984 315.137C201.024 310.697 197.817 303.42 196.584 300.336Z" fill="white"/>
<path d="M183.997 321.415L210.334 336.621C215.763 339.755 218.861 345.77 218.261 352.01L217.396 360.993L191.059 345.787C185.631 342.653 182.532 336.638 183.133 330.398L183.997 321.415Z" fill="#FFD300"/>
<path d="M288.626 321.415L262.289 336.621C256.86 339.755 253.762 345.77 254.362 352.01L255.227 360.993L281.564 345.787C286.992 342.653 290.091 336.638 289.49 330.398L288.626 321.415Z" fill="#FFD300"/>
<path d="M203.521 353.067L212.772 338.266L214.622 339.653L205.372 353.992L203.521 353.067Z" fill="#E6C00B"/>
<path d="M192.42 346.59L202.133 331.789L210.921 336.877L201.208 351.678L192.42 346.59Z" fill="#E7C10B"/>
<path d="M192.883 335.027L183.17 329.014L184.095 321.613L194.271 327.164L192.883 335.027Z" fill="#FF8139"/>
<path d="M279.838 335.027L289.551 329.014L288.626 321.613L278.45 327.164L279.838 335.027Z" fill="#FF8139"/>
<path d="M82.8003 371.168C82.8003 371.168 6.51117 371.168 6.51117 299.84C6.51117 228.512 54.6041 208.608 44.6538 156.357C34.7036 104.106 74.5084 52.6827 129.25 84.198C183.991 115.713 141.57 223.812 160.759 256.714C179.948 289.616 185.624 376.147 82.8003 371.168Z" fill="#24AD79"/>
<path fill-rule="evenodd" clip-rule="evenodd" d="M95.597 74.5634C109.452 86.4746 120.182 107.519 112.422 141.67C96.8169 210.347 107.741 238.442 121.785 263.416C135.747 288.241 114.24 377.848 15.874 337.509C36.3551 371.168 82.5953 371.168 82.5953 371.168C185.418 376.147 179.743 289.616 160.554 256.714C153.254 244.196 154.871 220.795 156.662 194.868C159.58 152.646 162.96 103.723 129.045 84.198C117.057 77.2967 105.786 74.3726 95.597 74.5634Z" fill="#179364"/>
<path d="M81.1704 263.339C81.1704 252.321 68.7803 229.976 64.9961 222.768C86.3929 259.868 88.8728 236.148 91.8156 227.999C94.1698 221.479 91.5892 205.06 90.0046 197.665C91.7598 204.305 95.9828 216.816 98.833 213.737C101.683 210.659 108.773 193.742 111.962 185.668C105.473 204.683 93.0498 243.914 95.2703 248.717C97.4907 253.521 113.495 250.719 121.22 248.717C100.893 256.07 95.4505 269.441 95.2703 275.207V539.638H81.1704V350.382V263.339Z" fill="white"/>
</svg>
